%Generated g-code, x_step 2 mm, y_step 1.5 mm x_length 4 mm y_length 9 mm
G21
G91
G00 X0 Y-1.5 Z0
M50
G00 X0 Y-1.5 Z0
M50
G00 X0 Y-1.5 Z0
M50
G00 X0 Y-1.5 Z0
M50
G00 X0 Y-1.5 Z0
M50
G00 X0 Y-1.5 Z0
M50
G00 X2 Y0 Z0
M50
G00 X0 Y1.5 Z0
M50
G00 X0 Y1.5 Z0
M50
G00 X0 Y1.5 Z0
M50
G00 X0 Y1.5 Z0
M50
G00 X0 Y1.5 Z0
M50
G00 X0 Y1.5 Z0
M50
G00 X2 Y0 Z0
M50
G00 X0 Y-1.5 Z0
M50
G00 X0 Y-1.5 Z0
M50
G00 X0 Y-1.5 Z0
M50
G00 X0 Y-1.5 Z0
M50
G00 X0 Y-1.5 Z0
M50
G00 X0 Y-1.5 Z0
M50
M00