%Generated g-code, x_step 1 mm, y_step 1 mm, x_length 10 mm, y_length 10 mm
G21
G91
G00 X0 Y-1 Z0
M50
G00 X0 Y-1 Z0
M50
G00 X0 Y-1 Z0
M50
G00 X0 Y-1 Z0
M50
G00 X0 Y-1 Z0
M50
G00 X0 Y-1 Z0
M50
G00 X0 Y-1 Z0
M50
G00 X0 Y-1 Z0
M50
G00 X0 Y-1 Z0
M50
G00 X0 Y-1 Z0
M50
G00 X1 Y0 Z0
M50
G00 X0 Y1 Z0
M50
G00 X0 Y1 Z0
M50
G00 X0 Y1 Z0
M50
G00 X0 Y1 Z0
M50
G00 X0 Y1 Z0
M50
G00 X0 Y1 Z0
M50
G00 X0 Y1 Z0
M50
G00 X0 Y1 Z0
M50
G00 X0 Y1 Z0
M50
G00 X0 Y1 Z0
M50
G00 X1 Y0 Z0
M50
G00 X0 Y-1 Z0
M50
G00 X0 Y-1 Z0
M50
G00 X0 Y-1 Z0
M50
G00 X0 Y-1 Z0
M50
G00 X0 Y-1 Z0
M50
G00 X0 Y-1 Z0
M50
G00 X0 Y-1 Z0
M50
G00 X0 Y-1 Z0
M50
G00 X0 Y-1 Z0
M50
G00 X0 Y-1 Z0
M50
G00 X1 Y0 Z0
M50
G00 X0 Y1 Z0
M50
G00 X0 Y1 Z0
M50
G00 X0 Y1 Z0
M50
G00 X0 Y1 Z0
M50
G00 X0 Y1 Z0
M50
G00 X0 Y1 Z0
M50
G00 X0 Y1 Z0
M50
G00 X0 Y1 Z0
M50
G00 X0 Y1 Z0
M50
G00 X0 Y1 Z0
M50
G00 X1 Y0 Z0
M50
G00 X0 Y-1 Z0
M50
G00 X0 Y-1 Z0
M50
G00 X0 Y-1 Z0
M50
G00 X0 Y-1 Z0
M50
G00 X0 Y-1 Z0
M50
G00 X0 Y-1 Z0
M50
G00 X0 Y-1 Z0
M50
G00 X0 Y-1 Z0
M50
G00 X0 Y-1 Z0
M50
G00 X0 Y-1 Z0
M50
G00 X1 Y0 Z0
M50
G00 X0 Y1 Z0
M50
G00 X0 Y1 Z0
M50
G00 X0 Y1 Z0
M50
G00 X0 Y1 Z0
M50
G00 X0 Y1 Z0
M50
G00 X0 Y1 Z0
M50
G00 X0 Y1 Z0
M50
G00 X0 Y1 Z0
M50
G00 X0 Y1 Z0
M50
G00 X0 Y1 Z0
M50
G00 X1 Y0 Z0
M50
G00 X0 Y-1 Z0
M50
G00 X0 Y-1 Z0
M50
G00 X0 Y-1 Z0
M50
G00 X0 Y-1 Z0
M50
G00 X0 Y-1 Z0
M50
G00 X0 Y-1 Z0
M50
G00 X0 Y-1 Z0
M50
G00 X0 Y-1 Z0
M50
G00 X0 Y-1 Z0
M50
G00 X0 Y-1 Z0
M50
G00 X1 Y0 Z0
M50
G00 X0 Y1 Z0
M50
G00 X0 Y1 Z0
M50
G00 X0 Y1 Z0
M50
G00 X0 Y1 Z0
M50
G00 X0 Y1 Z0
M50
G00 X0 Y1 Z0
M50
G00 X0 Y1 Z0
M50
G00 X0 Y1 Z0
M50
G00 X0 Y1 Z0
M50
G00 X0 Y1 Z0
M50
G00 X1 Y0 Z0
M50
G00 X0 Y-1 Z0
M50
G00 X0 Y-1 Z0
M50
G00 X0 Y-1 Z0
M50
G00 X0 Y-1 Z0
M50
G00 X0 Y-1 Z0
M50
G00 X0 Y-1 Z0
M50
G00 X0 Y-1 Z0
M50
G00 X0 Y-1 Z0
M50
G00 X0 Y-1 Z0
M50
G00 X0 Y-1 Z0
M50
G00 X1 Y0 Z0
M50
G00 X0 Y1 Z0
M50
G00 X0 Y1 Z0
M50
G00 X0 Y1 Z0
M50
G00 X0 Y1 Z0
M50
G00 X0 Y1 Z0
M50
G00 X0 Y1 Z0
M50
G00 X0 Y1 Z0
M50
G00 X0 Y1 Z0
M50
G00 X0 Y1 Z0
M50
G00 X0 Y1 Z0
M50
G00 X1 Y0 Z0
M50
G00 X0 Y-1 Z0
M50
G00 X0 Y-1 Z0
M50
G00 X0 Y-1 Z0
M50
G00 X0 Y-1 Z0
M50
G00 X0 Y-1 Z0
M50
G00 X0 Y-1 Z0
M50
G00 X0 Y-1 Z0
M50
G00 X0 Y-1 Z0
M50
G00 X0 Y-1 Z0
M50
G00 X0 Y-1 Z0
M50
M00