%Generated g-code, x_step 10 mm, y_step 10 mm, x_length 50 mm, y_length 50 mm
G21
G91
G00 X0 Y-10 Z0
M50
G00 X0 Y-10 Z0
M50
G00 X0 Y-10 Z0
M50
G00 X0 Y-10 Z0
M50
G00 X0 Y-10 Z0
M50
G00 X10 Y0 Z0
M50
G00 X0 Y10 Z0
M50
G00 X0 Y10 Z0
M50
G00 X0 Y10 Z0
M50
G00 X0 Y10 Z0
M50
G00 X0 Y10 Z0
M50
G00 X10 Y0 Z0
M50
G00 X0 Y-10 Z0
M50
G00 X0 Y-10 Z0
M50
G00 X0 Y-10 Z0
M50
G00 X0 Y-10 Z0
M50
G00 X0 Y-10 Z0
M50
G00 X10 Y0 Z0
M50
G00 X0 Y10 Z0
M50
G00 X0 Y10 Z0
M50
G00 X0 Y10 Z0
M50
G00 X0 Y10 Z0
M50
G00 X0 Y10 Z0
M50
G00 X10 Y0 Z0
M50
G00 X0 Y-10 Z0
M50
G00 X0 Y-10 Z0
M50
G00 X0 Y-10 Z0
M50
G00 X0 Y-10 Z0
M50
G00 X0 Y-10 Z0
M50
G00 X10 Y0 Z0
M50
G00 X0 Y10 Z0
M50
G00 X0 Y10 Z0
M50
G00 X0 Y10 Z0
M50
G00 X0 Y10 Z0
M50
G00 X0 Y10 Z0
M50
M00